brandFactory_export/3.Masa/Servicio tecnico para movil_3Masa.svg

<?xml version="1.0" encoding="UTF-8"?>
<svg width="24px" height="24px" viewBox="0 0 24 24" version="1.1" xmlns="http://www.w3.org/2000/svg" xmlns:xlink="http://www.w3.org/1999/xlink">
    <title>3.Masa/Servicio tecnico para movil_3Masa</title>
    <g id="Symbols" stroke="none" stroke-width="1" fill="none" fill-rule="evenodd">
        <g id="3.Masa/Servicio-tecnico-para-movil_3Masa" fill="#5CB615" fill-rule="nonzero">
            <path d="M19.7781513,0 L11.1563025,0 C9.82857143,0 8.86386555,0.32605042 8.21176471,0.998319328 C7.5697479,1.65714286 7.25714286,2.62184874 7.25714286,3.94957983 L7.25714286,9.6302521 L3.99663866,12.8907563 C3.88571429,12.8806723 3.77142857,12.8739496 3.6605042,12.8739496 C2.00672269,12.8739496 0.564705882,13.9932773 0.14789916,15.5932773 C-0.00672268908,16.1983193 -0.00672268908,16.8369748 0.154621849,17.4420168 C0.299159664,17.9798319 0.850420168,18.2991597 1.38823529,18.1546218 C1.55966387,18.107563 1.71428571,18.0201681 1.84201681,17.892437 L2.62857143,17.1092437 L3.00168067,17.1630252 L3.05546218,17.5361345 L2.26890756,18.3226891 C1.87563025,18.7159664 1.87563025,19.3546218 2.26890756,19.7478992 C2.39327731,19.8722689 2.5512605,19.9630252 2.72268908,20.010084 C4.65210084,20.5310924 6.64201681,19.3915966 7.16302521,17.4621849 C7.20336134,17.3142857 7.23361345,17.1663866 7.25378151,17.0117647 L7.25378151,19.6806723 C7.25378151,22.3394958 8.52773109,23.6302521 11.1529412,23.6302521 L19.7747899,23.6302521 C22.4,23.6302521 23.673956,22.3394958 23.673956,19.6806723 L23.673956,3.94957983 C23.6773109,1.32773109 22.3663866,0 19.7781513,0 Z M12.5008403,9.51932773 L7.2605042,14.7596639 L7.25714286,14.7596639 L7.25714286,14.7630252 L6.19495798,15.8252101 C6.57142857,17.2235294 5.74117647,18.6621849 4.34285714,19.0352941 C3.89915966,19.1529412 3.42857143,19.1563025 2.98487395,19.0352941 L4.12773109,17.892437 L3.89579832,16.2689076 L2.27226891,16.0369748 L1.12941176,17.1798319 C0.752941176,15.7815126 1.58319328,14.3428571 2.98151261,13.9697479 C3.42521008,13.8487395 3.89579832,13.8487395 4.3394958,13.9697479 L10.6420168,7.66386555 C10.2655462,6.26554622 11.0957983,4.82689076 12.4941176,4.45042017 C12.9378151,4.32941176 13.4084034,4.32941176 13.8521008,4.45042017 L12.7092437,5.59327731 L12.9411765,7.21680672 L14.5647059,7.4487395 L15.707563,6.30588235 C16.0840336,7.70420168 15.2537815,9.14285714 13.8554622,9.51596639 C13.4151261,9.64033613 12.9445378,9.64033613 12.5008403,9.51932773 Z M16.3361345,20.3663866 C16.1344538,20.5714286 15.8420168,20.6689076 15.4789916,20.6689076 C15.1159664,20.6689076 14.8235294,20.5714286 14.6218487,20.3663866 C14.4369748,20.1781513 14.3327731,19.8957983 14.3327731,19.5193277 C14.3327731,18.7327731 14.7831933,18.3697479 15.4789916,18.3697479 C16.1747899,18.3697479 16.6252101,18.7361345 16.6252101,19.5193277 C16.6252101,19.8991597 16.5210084,20.1781513 16.3361345,20.3663866 Z" id="Servicio-tecnico-para-movil_3Masa"></path>
        </g>
    </g>
</svg>

<svg width="24" height="24" viewBox="0 0 24 24" xmlns="http://www.w3.org/2000/svg"><path d="M19.778 0h-8.622C9.83 0 8.864.326 8.212.998c-.642.66-.955 1.624-.955 2.952v5.68l-3.26 3.26a3.632 3.632 0 00-3.842 4.551 1.007 1.007 0 001.687.451l.787-.783.373.054.053.373-.786.787a1.008 1.008 0 00.454 1.687 3.62 3.62 0 004.53-2.998v2.669c0 2.658 1.275 3.95 3.9 3.95h8.622c2.625 0 3.899-1.292 3.899-3.95V3.95C23.677 1.328 22.366 0 19.778 0zm-7.277 9.52l-5.24 5.24h-.004v.003l-1.062 1.062a2.618 2.618 0 01-3.21 3.21l1.143-1.143-.232-1.623-1.624-.232L1.13 17.18a2.618 2.618 0 013.21-3.21l6.303-6.306a2.623 2.623 0 013.21-3.214L12.71 5.593l.232 1.624 1.624.232 1.143-1.143a2.618 2.618 0 01-1.853 3.21c-.44.124-.91.124-1.354.003zm3.835 10.846c-.202.205-.494.303-.857.303s-.655-.098-.857-.303c-.185-.188-.29-.47-.29-.847 0-.786.451-1.15 1.147-1.15s1.146.367 1.146 1.15c0 .38-.104.66-.289.847z" fill="#5CB615" fill-rule="nonzero"/></svg>
